assets/Disguised face/Flat/disguised_face_flat.svg

<svg width="32" height="32" viewBox="0 0 32 32" fill="none" xmlns="http://www.w3.org/2000/svg">
<path d="M15.9989 29.9978C25.3333 29.9978 29.9978 23.7303 29.9978 15.9989C29.9978 8.26751 25.3333 2 15.9989 2C6.66443 2 2 8.26751 2 15.9989C2 23.7303 6.66443 29.9978 15.9989 29.9978Z" fill="#FFB02E"/>
<path d="M9.87869 9.12131C9.05026 8.29289 7.94976 8.29289 7.12133 9.12133C5.94976 10.2929 4.05027 10.2929 2.87869 9.12135C1.70711 7.94978 1.7071 6.05029 2.87867 4.87871C6.05024 1.70711 10.9497 1.70711 14.1213 4.87865C15.2929 6.05022 15.2929 7.94971 14.1213 9.12129C12.9498 10.2929 11.0503 10.2929 9.87869 9.12131Z" fill="#212121"/>
<path d="M22.1213 9.12131C22.9497 8.29289 24.0502 8.29289 24.8787 9.12133C26.0502 10.2929 27.9497 10.2929 29.1213 9.12135C30.2929 7.94978 30.2929 6.05029 29.1213 4.87871C25.9498 1.70711 21.0503 1.70711 17.8787 4.87865C16.7071 6.05022 16.7071 7.94971 17.8787 9.12129C19.0502 10.2929 20.9497 10.2929 22.1213 9.12131Z" fill="#212121"/>
<path d="M17.8904 27.4169C18.4649 27.8092 19.1152 28 19.7655 28C20.8928 28 22.0092 27.4275 22.6161 26.3567C23.4291 24.9148 22.8979 23.0912 21.5214 22.137L17.8362 19.5819C16.6981 18.7973 15.1807 18.8079 14.0535 19.6031L10.3466 22.243C8.72077 23.3986 8.50399 25.7417 10.0431 27.1624C11.1812 28.2226 12.9804 28.2332 14.2486 27.3321L14.4762 27.173C15.3758 26.5263 16.6006 26.5157 17.5111 27.1518L17.8904 27.4169Z" fill="#212121"/>
<path d="M27.5 13.5C27.5 16.2614 25.2614 18.5 22.5 18.5C19.7386 18.5 17.5 16.2614 17.5 13.5C17.5 10.7386 19.7386 8.5 22.5 8.5C25.2614 8.5 27.5 10.7386 27.5 13.5Z" fill="white"/>
<path d="M14.5024 13.5025C14.5024 16.2639 12.2639 18.5025 9.50244 18.5025C6.74102 18.5025 4.50244 16.2639 4.50244 13.5025C4.50244 10.7411 6.74102 8.5025 9.50244 8.5025C12.2639 8.5025 14.5024 10.7411 14.5024 13.5025Z" fill="white"/>
<path d="M17.9719 22H14.0291C12.5621 22 11.584 20.515 12.1749 19.2007C12.1749 19.2007 14.4468 16.5819 14.9562 13H17.0753C17.5847 16.4615 19.8261 19.2107 19.8261 19.2107C20.417 20.5251 19.4287 22 17.9719 22Z" fill="#FF822D"/>
<path d="M8 13.5C8 12.119 9.11895 11 10.5 11C11.881 11 13 12.119 13 13.5C13 14.881 11.881 16 10.5 16C9.11895 16 8 14.881 8 13.5Z" fill="#402A32"/>
<path d="M19 13.5C19 12.119 20.119 11 21.5 11C22.8811 11 24 12.119 24 13.5C24 14.881 22.8811 16 21.5 16C20.119 16 19 14.881 19 13.5Z" fill="#402A32"/>
<path d="M9.5 8C12.0176 8 14.14 9.69149 14.793 12H17.207C17.86 9.69149 19.9824 8 22.5 8C25.0176 8 27.14 9.69149 27.793 12H29.913C30.5109 12 31 12.45 31 13C31 13.55 30.5109 14 29.913 14H27.9776C27.725 16.8033 25.369 19 22.5 19C19.631 19 17.275 16.8033 17.0224 14H14.9776C14.725 16.8032 12.369 19 9.5 19C6.63098 19 4.27504 16.8032 4.02242 14H2C1.44772 14 1 13.5523 1 13C1 12.4477 1.44772 12 2 12H4.20703C4.85996 9.69149 6.98245 8 9.5 8ZM5 13.5C5 15.9853 7.01472 18 9.5 18C11.9853 18 14 15.9853 14 13.5C14 11.0147 11.9853 9 9.5 9C7.01472 9 5 11.0147 5 13.5ZM18.0073 13.5C18.0073 15.9812 20.0188 17.9927 22.5 17.9927C24.9812 17.9927 26.9927 15.9812 26.9927 13.5C26.9927 11.0188 24.9812 9.00733 22.5 9.00733C20.0188 9.00733 18.0073 11.0188 18.0073 13.5Z" fill="#402A32"/>
</svg>

<svg xmlns="http://www.w3.org/2000/svg" width="32" height="32" fill="none"><path fill="#FFB02E" d="M15.999 29.998c9.334 0 13.999-6.268 13.999-14 0-7.73-4.665-13.998-14-13.998C6.665 2 2 8.268 2 15.999c0 7.731 4.664 13.999 13.999 13.999Z"/><path fill="#212121" d="M9.879 9.121c-.829-.828-1.93-.828-2.758 0A3 3 0 0 1 2.88 4.88c3.171-3.172 8.07-3.172 11.242 0A3 3 0 1 1 9.88 9.12ZM22.121 9.121c.829-.828 1.93-.828 2.758 0A3 3 0 1 0 29.12 4.88c-3.171-3.172-8.07-3.172-11.242 0A3 3 0 1 0 22.12 9.12ZM17.89 27.417a3.31 3.31 0 0 0 1.875.583 3.26 3.26 0 0 0 2.851-1.643c.813-1.442.282-3.266-1.095-4.22l-3.685-2.555a3.315 3.315 0 0 0-3.782.021l-3.707 2.64a3.145 3.145 0 0 0-.304 4.92c1.138 1.06 2.937 1.07 4.206.17l.227-.16a2.634 2.634 0 0 1 3.035-.021l.38.265Z"/><path fill="#fff" d="M27.5 13.5a5 5 0 1 1-10 0 5 5 0 0 1 10 0ZM14.502 13.502a5 5 0 1 1-10 0 5 5 0 0 1 10 0Z"/><path fill="#FF822D" d="M17.972 22h-3.943c-1.467 0-2.445-1.485-1.854-2.8 0 0 2.272-2.618 2.781-6.2h2.12c.509 3.462 2.75 6.21 2.75 6.21.591 1.315-.397 2.79-1.854 2.79Z"/><path fill="#402A32" d="M8 13.5a2.5 2.5 0 1 1 5 0 2.5 2.5 0 0 1-5 0ZM19 13.5a2.5 2.5 0 1 1 5 0 2.5 2.5 0 0 1-5 0Z"/><path fill="#402A32" d="M9.5 8a5.502 5.502 0 0 1 5.293 4h2.414a5.502 5.502 0 0 1 10.586 0h2.12c.598 0 1.087.45 1.087 1s-.49 1-1.087 1h-1.935a5.5 5.5 0 0 1-10.956 0h-2.044a5.5 5.5 0 0 1-10.956 0H2a1 1 0 1 1 0-2h2.207A5.502 5.502 0 0 1 9.5 8ZM5 13.5a4.5 4.5 0 1 0 9 0 4.5 4.5 0 0 0-9 0Zm13.007 0a4.493 4.493 0 1 0 8.986 0 4.493 4.493 0 0 0-8.986 0Z"/></svg>
